app/component-library/components/Icons/Icon/assets/diagram.svg

<svg width="24" height="24" viewBox="0 0 24 24" fill="none" xmlns="http://www.w3.org/2000/svg">
<path d="M2.28125 2V19C2.28125 20.66 3.62125 22 5.28125 22H22.2812M5.28125 17L9.87125 11.64C10.6313 10.76 11.9813 10.7 12.8013 11.53L13.7513 12.48C14.5713 13.3 15.9212 13.25 16.6812 12.37L21.2812 7" stroke="currentColor" stroke-width="1.5" stroke-miterlimit="10" stroke-linecap="round" stroke-linejoin="round"/>
</svg>

<svg xmlns="http://www.w3.org/2000/svg" width="24" height="24" viewBox="0 0 24 24" fill="none"><path d="M2.281 2v17c0 1.66 1.34 3 3 3h17m-17-5 4.59-5.36c.76-.88 2.11-.94 2.93-.11l.95.95c.82.82 2.17.77 2.93-.11l4.6-5.37" stroke="currentColor" stroke-width="1.5" stroke-miterlimit="10" stroke-linecap="round" stroke-linejoin="round"/></svg>
